Sources/FrostedUI/Resources/Icons.xcassets/happyFaceFilled24.imageset/happy-face-filled-24.svg

<svg width="24" height="24" viewBox="0 0 24 24" fill="none" xmlns="http://www.w3.org/2000/svg" data-fui-icon="true">
  <g clip-path="url(#clip0_6205_233)">
    <path
      d="M12 0C18.4203 1.41588e-05 24 5.5797 24 12C24 18.4203 18.4203 24 12 24C5.5797 24 3.31525e-06 18.4203 0 12C3.52246e-06 5.5797 5.5797 1.4366e-05 12 0ZM8.50781 15.5977C8.30436 15.2768 7.88723 15.1558 7.54004 15.3291C7.16969 15.5143 7.01916 15.9646 7.2041 16.335L7.76953 16.0527C7.21879 16.3282 7.2043 16.3354 7.2041 16.3359L7.20508 16.3369L7.20801 16.3428C7.20952 16.3457 7.2108 16.3495 7.21289 16.3535C7.21711 16.3616 7.22287 16.3716 7.22949 16.3838C7.24283 16.4083 7.26171 16.4411 7.28516 16.4805C7.33198 16.5591 7.39903 16.6661 7.48926 16.791C7.66947 17.0405 7.94319 17.3677 8.32422 17.6943C9.09445 18.3545 10.294 19 12 19C13.706 19 14.9056 18.3545 15.6758 17.6943C16.0568 17.3677 16.3305 17.0405 16.5107 16.791C16.601 16.6661 16.668 16.5591 16.7148 16.4805C16.7383 16.4411 16.7572 16.4083 16.7705 16.3838C16.7771 16.3716 16.7829 16.3616 16.7871 16.3535C16.7892 16.3495 16.7905 16.3457 16.792 16.3428L16.7949 16.3369C16.7951 16.3366 16.7958 16.3354 16.2305 16.0527L16.7959 16.335C16.9808 15.9646 16.8303 15.5143 16.46 15.3291C16.1128 15.1558 15.6956 15.2768 15.4922 15.5977L15.457 15.6592L15.4561 15.6602L15.4541 15.6641V15.665L15.4531 15.667C15.4485 15.6755 15.4397 15.6911 15.4268 15.7129C15.4004 15.7572 15.3559 15.8263 15.2939 15.9121C15.1695 16.0844 14.9743 16.3199 14.6992 16.5557C14.1569 17.0204 13.2939 17.5 12 17.5C10.7061 17.5 9.84306 17.0204 9.30078 16.5557C9.02567 16.3199 8.83051 16.0844 8.70605 15.9121C8.64408 15.8263 8.59964 15.7572 8.57324 15.7129C8.56026 15.6911 8.55149 15.6755 8.54688 15.667L8.54492 15.665V15.6621L8.54395 15.6602L8.54297 15.6592L8.50781 15.5977ZM7.2002 10.2998C6.53745 10.2998 6 10.8373 6 11.5C6 12.1627 6.53745 12.7002 7.2002 12.7002C7.86285 12.7001 8.40039 12.1627 8.40039 11.5C8.40039 10.8373 7.86285 10.2999 7.2002 10.2998ZM16.7998 10.2998C16.1372 10.2999 15.5996 10.8373 15.5996 11.5C15.5996 12.1627 16.1372 12.7001 16.7998 12.7002C17.4625 12.7002 18 12.1627 18 11.5C18 10.8373 17.4625 10.2998 16.7998 10.2998Z"
      fill="currentColor"
    />
  </g>
  <defs>
    <clipPath id="clip0_6205_233"><path fill="currentColor" d="M0 0H24V24H0z" /></clipPath>
  </defs>
</svg>

<svg xmlns="http://www.w3.org/2000/svg" width="24" height="24" fill="none" data-fui-icon="true" viewBox="0 0 24 24"><g clip-path="url(#a)"><path fill="currentColor" d="M12 0c6.42 0 12 5.58 12 12s-5.58 12-12 12S0 18.42 0 12 5.58 0 12 0M8.508 15.598a.75.75 0 0 0-1.304.737l.566-.282-.566.283h.001l.003.007.005.01.016.03.056.098c.047.078.114.185.204.31.18.25.454.577.835.903.77.66 1.97 1.306 3.676 1.306s2.906-.645 3.676-1.306c.38-.326.655-.653.835-.903a4 4 0 0 0 .26-.407l.016-.03.005-.011.003-.006s0-.002-.565-.284l.566.282a.75.75 0 0 0-1.304-.737l-.035.061v.001l-.003.004v.003l-.027.046q-.04.068-.133.2c-.125.171-.32.407-.595.643-.542.464-1.405.944-2.699.944s-2.157-.48-2.7-.944a3.7 3.7 0 0 1-.727-.843l-.026-.046-.002-.002v-.003l-.001-.002h-.001zM7.2 10.3a1.2 1.2 0 1 0 0 2.4 1.2 1.2 0 0 0 0-2.4m9.6 0a1.2 1.2 0 1 0 0 2.4 1.2 1.2 0 0 0 0-2.4"/></g><defs><clipPath id="a"><path fill="currentColor" d="M0 0h24v24H0z"/></clipPath></defs></svg>
